X:012
T:New Year's Day
S:Gow's Complete Repository, c.1810
N:Transposed from F; 1st bar
N:changed from d/e/fe to dfe
Z:Nigel Gatherer
M:6/8 jig
L:1/8
K:D
F|D>ED dfe|dDD D2 F|D>ED d>ef|eEE E2 F|DEF dcB|
A2 g f2 e|d>cB AFd|AFD D2::F/G/|A>BA FAF|ABA F2 G|
ABc d>ef|eEE E2 F|A>BA FAF|A2 g f2 e|dcB AFd|AFD D2:|
<end>
<start>
